src/icons/blockchains/dark/oasis.svg

<svg width="24" height="24" viewBox="0 0 24 24" fill="none" xmlns="http://www.w3.org/2000/svg">
  <rect width="24" height="24" rx="12" fill="#080530" />
  <mask
    id="mask0_1131_18494"
    style="mask-type: alpha"
    maskUnits="userSpaceOnUse"
    x="4"
    y="4"
    width="16"
    height="16"
  >
    <rect x="4" y="4" width="16" height="16" fill="#D9D9D9" />
  </mask>
  <g mask="url(#mask0_1131_18494)">
    <path
      fill-rule="evenodd"
      clip-rule="evenodd"
      d="M17.6665 7.80906C16.5627 6.42748 14.979 5.59853 13.2033 5.59853C9.79599 5.59853 7.25249 8.63801 7.25249 11.9538C7.25249 14.2564 8.83618 15.9604 10.6118 15.9604C10.8038 15.9604 10.9478 15.9604 11.0917 15.9144C9.89197 15.0854 9.12412 13.5656 9.12412 11.9538C9.12412 9.3288 10.9478 7.30248 13.1553 7.30248C15.5069 7.30248 17.1866 9.55906 17.1866 11.9538C17.1866 13.7038 16.5147 15.4999 15.3629 16.7894C14.3551 17.9407 13.0594 18.6315 11.6196 18.8617C11.6196 18.8617 11.7636 18.8617 11.9076 18.8617C15.8908 18.8617 19.1062 15.7762 19.1062 11.9538C19.1542 10.388 18.5783 8.96038 17.6665 7.80906ZM16.5627 11.9538C16.5627 9.65117 14.979 7.94722 13.2033 7.94722C13.0114 7.94722 12.8674 7.94722 12.7234 7.99327C13.9232 8.82222 14.6911 10.342 14.6911 11.9538C14.6911 14.5788 12.8674 16.6052 10.6598 16.6052C8.30828 16.6052 6.62861 14.3485 6.62861 11.9538C6.62861 10.2038 7.30048 8.40775 8.45226 7.11827C9.46006 5.96695 10.7558 5.27616 12.1955 5.0459C12.1955 5.0459 12.0515 5.0459 11.9076 5.0459C7.92435 5.0459 4.70898 8.13143 4.70898 11.9538C4.70898 13.5196 5.23689 14.9472 6.14871 16.0986C7.25249 17.4341 8.83618 18.263 10.6118 18.263C14.0672 18.3091 16.5627 15.2696 16.5627 11.9538Z"
      fill="white"
    />
  </g>
</svg>

<svg
  xmlns="http://www.w3.org/2000/svg"
  width="24"
  height="24"
  fill="none"
  xmlns:v="https://vecta.io/nano"
>
  <rect width="24" height="24" rx="12" fill="#080530" />
  <mask id="A" maskUnits="userSpaceOnUse" x="4" y="4" width="16" height="16" mask-type="alpha">
    <path fill="#d9d9d9" d="M4 4h16v16H4z" />
  </mask>
  <g mask="url(#A)">
    <path
      fill-rule="evenodd"
      d="M17.667 7.809c-1.104-1.382-2.687-2.211-4.463-2.211-3.407 0-5.951 3.039-5.951 6.355 0 2.303 1.584 4.007 3.359 4.007.192 0 .336 0 .48-.046-1.2-.829-1.968-2.349-1.968-3.961 0-2.625 1.824-4.651 4.031-4.651 2.352 0 4.031 2.257 4.031 4.651 0 1.75-.672 3.546-1.824 4.836a6.2 6.2 0 0 1-3.743 2.072h.288c3.983 0 7.199-3.085 7.199-6.908.048-1.566-.528-2.993-1.44-4.145zm-1.104 4.145c0-2.303-1.584-4.007-3.359-4.007-.192 0-.336 0-.48.046 1.2.829 1.968 2.349 1.968 3.961 0 2.625-1.824 4.651-4.031 4.651-2.352 0-4.031-2.257-4.031-4.651 0-1.75.672-3.546 1.824-4.836a6.2 6.2 0 0 1 3.743-2.072h-.288c-3.983 0-7.199 3.086-7.199 6.908a6.62 6.62 0 0 0 1.44 4.145c1.104 1.335 2.687 2.164 4.463 2.164 3.455.046 5.951-2.993 5.951-6.309z"
      fill="#fff"
    />
  </g>
</svg>
